6/img/copyright.svg

<svg width="129" height="36" viewBox="0 0 129 36" fill="none" xmlns="http://www.w3.org/2000/svg">
<path d="M1.48883 12.798C1.84349 12.714 2.22616 12.658 2.63683 12.63C3.04749 12.602 3.45349 12.588 3.85483 12.588C4.28416 12.588 4.71816 12.63 5.15683 12.714C5.60483 12.798 6.01083 12.952 6.37483 13.176C6.73883 13.4 7.03283 13.708 7.25683 14.1C7.49016 14.492 7.60683 14.9913 7.60683 15.598C7.60683 16.1953 7.49949 16.6993 7.28483 17.11C7.07016 17.5207 6.7855 17.8567 6.43083 18.118C6.07616 18.37 5.67016 18.552 5.21283 18.664C4.75549 18.776 4.28416 18.832 3.79883 18.832C3.75216 18.832 3.67283 18.832 3.56083 18.832C3.45816 18.832 3.34616 18.832 3.22483 18.832C3.11283 18.8227 3.00083 18.8133 2.88883 18.804C2.77683 18.7947 2.69749 18.7853 2.65083 18.776V22.5H1.48883V12.798ZM3.88283 13.596C3.64016 13.596 3.40683 13.6007 3.18283 13.61C2.95883 13.6193 2.78149 13.6427 2.65083 13.68V17.74C2.69749 17.7587 2.77216 17.7727 2.87483 17.782C2.97749 17.782 3.08483 17.7867 3.19683 17.796C3.30883 17.796 3.41616 17.796 3.51883 17.796C3.62149 17.796 3.69616 17.796 3.74283 17.796C4.06016 17.796 4.37283 17.768 4.68083 17.712C4.99816 17.6467 5.28283 17.5347 5.53483 17.376C5.78683 17.2173 5.9875 16.9933 6.13683 16.704C6.2955 16.4147 6.37483 16.046 6.37483 15.598C6.37483 15.2153 6.30016 14.898 6.15083 14.646C6.01083 14.3847 5.8195 14.1793 5.57683 14.03C5.3435 13.8713 5.0775 13.7593 4.77883 13.694C4.48016 13.6287 4.1815 13.596 3.88283 13.596ZM13.0825 19.784H9.47047L8.49047 22.5H7.34247L11.0525 12.546H11.5845L15.3085 22.5H14.0905L13.0825 19.784ZM9.84847 18.776H12.7325L11.6405 15.794L11.2905 14.31H11.2765L10.9265 15.822L9.84847 18.776ZM17.3659 17.866V16.886H17.5899C17.6739 16.886 17.7766 16.886 17.8979 16.886C18.0193 16.886 18.1406 16.8813 18.2619 16.872C18.3926 16.8627 18.5139 16.858 18.6259 16.858C18.7473 16.8487 18.8453 16.8347 18.9199 16.816C19.1626 16.7787 19.3913 16.718 19.6059 16.634C19.8206 16.5407 20.0073 16.424 20.1659 16.284C20.3246 16.144 20.4506 15.9807 20.5439 15.794C20.6373 15.6073 20.6839 15.402 20.6839 15.178C20.6839 14.87 20.6326 14.6133 20.5299 14.408C20.4273 14.2027 20.2826 14.0393 20.0959 13.918C19.9186 13.7873 19.7086 13.6987 19.4659 13.652C19.2326 13.596 18.9806 13.568 18.7099 13.568C18.2059 13.568 17.7766 13.6053 17.4219 13.68C17.0673 13.7453 16.7826 13.8293 16.5679 13.932L16.2599 13.008C16.4466 12.9053 16.7826 12.8027 17.2679 12.7C17.7533 12.588 18.2993 12.532 18.9059 12.532C19.2793 12.532 19.6433 12.574 19.9979 12.658C20.3619 12.7327 20.6839 12.8633 20.9639 13.05C21.2533 13.2273 21.4819 13.4747 21.6499 13.792C21.8273 14.1 21.9159 14.4827 21.9159 14.94C21.9159 15.4067 21.7619 15.8547 21.4539 16.284C21.1459 16.704 20.6839 17.0073 20.0679 17.194V17.25C20.7306 17.3433 21.2533 17.5907 21.6359 17.992C22.0186 18.3933 22.2099 18.93 22.2099 19.602C22.2099 20.134 22.1026 20.596 21.8879 20.988C21.6826 21.3707 21.4073 21.688 21.0619 21.94C20.7259 22.192 20.3339 22.3787 19.8859 22.5C19.4473 22.612 18.9993 22.668 18.5419 22.668C17.9259 22.668 17.4173 22.6307 17.0159 22.556C16.6239 22.4907 16.2973 22.4067 16.0359 22.304L16.3299 21.254C16.5446 21.3567 16.8433 21.4453 17.2259 21.52C17.6179 21.5947 18.0893 21.632 18.6399 21.632C18.9293 21.632 19.2139 21.5947 19.4939 21.52C19.7739 21.436 20.0213 21.3147 20.2359 21.156C20.4599 20.988 20.6373 20.7827 20.7679 20.54C20.9079 20.2973 20.9779 20.008 20.9779 19.672C20.9779 19.084 20.7726 18.6547 20.3619 18.384C19.9513 18.104 19.4146 17.9407 18.7519 17.894C18.6399 17.8847 18.5326 17.88 18.4299 17.88C18.3366 17.8707 18.2386 17.866 18.1359 17.866H17.3659ZM24.1841 12.798C24.5388 12.714 24.9215 12.658 25.3321 12.63C25.7428 12.602 26.1488 12.588 26.5501 12.588C26.9795 12.588 27.4135 12.63 27.8521 12.714C28.3001 12.798 28.7061 12.952 29.0701 13.176C29.4341 13.4 29.7281 13.708 29.9521 14.1C30.1855 14.492 30.3021 14.9913 30.3021 15.598C30.3021 16.1953 30.1948 16.6993 29.9801 17.11C29.7655 17.5207 29.4808 17.8567 29.1261 18.118C28.7715 18.37 28.3655 18.552 27.9081 18.664C27.4508 18.776 26.9795 18.832 26.4941 18.832C26.4475 18.832 26.3681 18.832 26.2561 18.832C26.1535 18.832 26.0415 18.832 25.9201 18.832C25.8081 18.8227 25.6961 18.8133 25.5841 18.804C25.4721 18.7947 25.3928 18.7853 25.3461 18.776V22.5H24.1841V12.798ZM26.5781 13.596C26.3355 13.596 26.1021 13.6007 25.8781 13.61C25.6541 13.6193 25.4768 13.6427 25.3461 13.68V17.74C25.3928 17.7587 25.4675 17.7727 25.5701 17.782C25.6728 17.782 25.7801 17.7867 25.8921 17.796C26.0041 17.796 26.1115 17.796 26.2141 17.796C26.3168 17.796 26.3915 17.796 26.4381 17.796C26.7555 17.796 27.0681 17.768 27.3761 17.712C27.6935 17.6467 27.9781 17.5347 28.2301 17.376C28.4821 17.2173 28.6828 16.9933 28.8321 16.704C28.9908 16.4147 29.0701 16.046 29.0701 15.598C29.0701 15.2153 28.9955 14.898 28.8461 14.646C28.7061 14.3847 28.5148 14.1793 28.2721 14.03C28.0388 13.8713 27.7728 13.7593 27.4741 13.694C27.1755 13.6287 26.8768 13.596 26.5781 13.596ZM35.7778 19.784H32.1658L31.1858 22.5H30.0378L33.7478 12.546H34.2798L38.0038 22.5H36.7858L35.7778 19.784ZM32.5438 18.776H35.4278L34.3358 15.794L33.9858 14.31H33.9718L33.6218 15.822L32.5438 18.776ZM39.3052 12.7H44.6252V13.736H40.4672V16.676C40.6259 16.648 40.8219 16.62 41.0552 16.592C41.2886 16.564 41.5126 16.55 41.7272 16.55C42.2032 16.55 42.6559 16.5967 43.0852 16.69C43.5146 16.774 43.8926 16.9233 44.2192 17.138C44.5459 17.3527 44.8026 17.6467 44.9892 18.02C45.1852 18.384 45.2832 18.846 45.2832 19.406C45.2832 19.966 45.1852 20.4513 44.9892 20.862C44.7932 21.2633 44.5319 21.5947 44.2052 21.856C43.8786 22.108 43.4959 22.2993 43.0572 22.43C42.6279 22.5513 42.1752 22.612 41.6992 22.612C41.5406 22.612 41.3586 22.6073 41.1532 22.598C40.9572 22.598 40.7472 22.5887 40.5232 22.57C40.3086 22.5513 40.0939 22.528 39.8792 22.5C39.6739 22.4813 39.4826 22.4487 39.3052 22.402V12.7ZM41.8392 21.604C42.1379 21.604 42.4226 21.562 42.6932 21.478C42.9639 21.394 43.1972 21.2727 43.3932 21.114C43.5986 20.946 43.7572 20.736 43.8692 20.484C43.9906 20.232 44.0512 19.938 44.0512 19.602C44.0512 19.1727 43.9812 18.8273 43.8412 18.566C43.7106 18.2953 43.5332 18.0853 43.3092 17.936C43.0852 17.7867 42.8239 17.6887 42.5252 17.642C42.2359 17.586 41.9326 17.558 41.6152 17.558C41.5312 17.558 41.4332 17.5627 41.3212 17.572C41.2092 17.5813 41.0972 17.5907 40.9852 17.6C40.8732 17.6093 40.7706 17.6233 40.6772 17.642C40.5839 17.6513 40.5139 17.6607 40.4672 17.67V21.52C40.5326 21.5387 40.6166 21.5527 40.7192 21.562C40.8312 21.5713 40.9479 21.5807 41.0692 21.59C41.1999 21.5993 41.3306 21.604 41.4612 21.604C41.5919 21.604 41.7179 21.604 41.8392 21.604ZM46.5965 17.6C46.5965 15.9667 46.9418 14.716 47.6325 13.848C48.3232 12.9707 49.3078 12.532 50.5865 12.532C51.2772 12.532 51.8745 12.6533 52.3785 12.896C52.8825 13.1387 53.2978 13.484 53.6245 13.932C53.9605 14.3707 54.2078 14.9027 54.3665 15.528C54.5252 16.144 54.6045 16.8347 54.6045 17.6C54.6045 19.2333 54.2545 20.4887 53.5545 21.366C52.8638 22.234 51.8745 22.668 50.5865 22.668C49.9052 22.668 49.3125 22.5467 48.8085 22.304C48.3138 22.0613 47.8985 21.7207 47.5625 21.282C47.2358 20.834 46.9932 20.302 46.8345 19.686C46.6758 19.0607 46.5965 18.3653 46.5965 17.6ZM47.8285 17.6C47.8285 18.1413 47.8798 18.6547 47.9825 19.14C48.0945 19.6253 48.2625 20.0547 48.4865 20.428C48.7105 20.792 48.9952 21.086 49.3405 21.31C49.6952 21.5247 50.1105 21.632 50.5865 21.632C51.4545 21.632 52.1358 21.3053 52.6305 20.652C53.1252 19.9893 53.3725 18.972 53.3725 17.6C53.3725 17.068 53.3165 16.5593 53.2045 16.074C53.1018 15.5793 52.9338 15.15 52.7005 14.786C52.4765 14.4127 52.1872 14.1187 51.8325 13.904C51.4872 13.68 51.0718 13.568 50.5865 13.568C49.7278 13.568 49.0512 13.8993 48.5565 14.562C48.0712 15.2153 47.8285 16.228 47.8285 17.6ZM62.2309 13.736H59.1789V22.5H58.0169V13.736H54.9649V12.7H62.2309V13.736ZM67.3872 19.784H63.7752L62.7952 22.5H61.6472L65.3572 12.546H65.8892L69.6132 22.5H68.3952L67.3872 19.784ZM64.1532 18.776H67.0372L65.9452 15.794L65.5952 14.31H65.5812L65.2312 15.822L64.1532 18.776ZM76.7806 18.006H72.0766V22.5H70.9146V12.7H72.0766V16.97H76.7806V12.7H77.9426V22.5H76.7806V18.006ZM79.9149 17.6C79.9149 15.9667 80.2602 14.716 80.9509 13.848C81.6415 12.9707 82.6262 12.532 83.9049 12.532C84.5955 12.532 85.1929 12.6533 85.6969 12.896C86.2009 13.1387 86.6162 13.484 86.9429 13.932C87.2789 14.3707 87.5262 14.9027 87.6849 15.528C87.8435 16.144 87.9229 16.8347 87.9229 17.6C87.9229 19.2333 87.5729 20.4887 86.8729 21.366C86.1822 22.234 85.1929 22.668 83.9049 22.668C83.2235 22.668 82.6309 22.5467 82.1269 22.304C81.6322 22.0613 81.2169 21.7207 80.8809 21.282C80.5542 20.834 80.3115 20.302 80.1529 19.686C79.9942 19.0607 79.9149 18.3653 79.9149 17.6ZM81.1469 17.6C81.1469 18.1413 81.1982 18.6547 81.3009 19.14C81.4129 19.6253 81.5809 20.0547 81.8049 20.428C82.0289 20.792 82.3135 21.086 82.6589 21.31C83.0135 21.5247 83.4289 21.632 83.9049 21.632C84.7729 21.632 85.4542 21.3053 85.9489 20.652C86.4435 19.9893 86.6909 18.972 86.6909 17.6C86.6909 17.068 86.6349 16.5593 86.5229 16.074C86.4202 15.5793 86.2522 15.15 86.0189 14.786C85.7949 14.4127 85.5055 14.1187 85.1509 13.904C84.8055 13.68 84.3902 13.568 83.9049 13.568C83.0462 13.568 82.3695 13.8993 81.8749 14.562C81.3895 15.2153 81.1469 16.228 81.1469 17.6Z" fill="black"/>
<path d="M111.151 2.25H111.05L97.5 3.58944V27.221L111.05 34.875L124.5 27.221V3.58944L111.151 2.25ZM122.593 13.8266L111.05 7.32075V7.22507H110.95L110.849 7.1294V7.22507L99.4071 13.8266V5.21591L110.95 4.06782L122.593 5.21591V13.8266ZM110.95 8.75587L122.493 15.1661L117.976 17.6536L110.849 13.6353V14.9747L116.771 18.3233L115.868 18.8017L110.849 15.9315V17.2709L114.664 19.4714L113.861 19.9498L110.849 18.2276V19.5671L112.757 20.6195L110.95 21.6719L99.5074 15.2617L110.95 8.75587ZM99.4071 16.6968L110.849 23.2027V24.1595L102.92 19.6628V21.0022L110.95 25.5946V26.647L102.92 22.1503V23.4897L110.95 28.0821L119.08 23.3941V18.419L122.493 16.5055V26.0729L110.95 32.6745L99.4071 26.1686V16.6968Z" fill="black"/>
</svg>

<svg width="129" height="36" fill="none" xmlns="http://www.w3.org/2000/svg"><path d="M1.489 12.798a7.07 7.07 0 0 1 1.148-.168c.41-.028.816-.042 1.218-.042.43 0 .863.042 1.302.126a3.55 3.55 0 0 1 1.218.462c.364.224.658.532.882.924.233.392.35.891.35 1.498 0 .597-.108 1.101-.322 1.512-.215.41-.5.747-.854 1.008-.355.252-.76.434-1.218.546a5.923 5.923 0 0 1-1.414.168H3.225l-.336-.028a2.406 2.406 0 0 1-.238-.028V22.5H1.489v-9.702Zm2.394.798c-.243 0-.476.005-.7.014-.224.01-.402.033-.532.07v4.06a.862.862 0 0 0 .224.042c.102 0 .21.005.322.014h.546c.317 0 .63-.028.938-.084.317-.065.602-.177.854-.336.252-.159.452-.383.602-.672.159-.29.238-.658.238-1.106 0-.383-.075-.7-.224-.952a1.588 1.588 0 0 0-.574-.616c-.234-.159-.5-.27-.798-.336a4.184 4.184 0 0 0-.896-.098Zm9.2 6.188H9.47L8.49 22.5H7.342l3.71-9.954h.533l3.723 9.954h-1.217l-1.008-2.716Zm-3.235-1.008h2.884l-1.091-2.982-.35-1.484h-.014l-.35 1.512-1.079 2.954Zm7.518-.91v-.98h.532c.121 0 .243-.005.364-.014.13-.01.252-.014.364-.014.121-.01.22-.023.294-.042.243-.037.471-.098.686-.182.215-.093.401-.21.56-.35.159-.14.285-.303.378-.49.093-.187.14-.392.14-.616 0-.308-.051-.565-.154-.77a1.226 1.226 0 0 0-.434-.49 1.534 1.534 0 0 0-.63-.266 3.234 3.234 0 0 0-.756-.084c-.504 0-.933.037-1.288.112-.355.065-.64.15-.854.252l-.308-.924c.187-.103.523-.205 1.008-.308a7.307 7.307 0 0 1 1.638-.168c.373 0 .737.042 1.092.126a2.7 2.7 0 0 1 .966.392c.29.177.518.425.686.742.177.308.266.69.266 1.148 0 .467-.154.915-.462 1.344-.308.42-.77.723-1.386.91v.056c.663.093 1.185.34 1.568.742.383.401.574.938.574 1.61 0 .532-.107.994-.322 1.386-.205.383-.48.7-.826.952a3.432 3.432 0 0 1-1.176.56 5.41 5.41 0 0 1-1.344.168c-.616 0-1.125-.037-1.526-.112a4.94 4.94 0 0 1-.98-.252l.294-1.05c.215.103.513.191.896.266.392.075.863.112 1.414.112.29 0 .574-.037.854-.112.28-.084.527-.205.742-.364a1.87 1.87 0 0 0 .532-.616c.14-.243.21-.532.21-.868 0-.588-.205-1.017-.616-1.288-.41-.28-.947-.443-1.61-.49a3.896 3.896 0 0 0-.322-.014 2.966 2.966 0 0 0-.294-.014h-.77Zm6.818-5.068c.355-.084.738-.14 1.148-.168.41-.028.817-.042 1.218-.042.43 0 .863.042 1.302.126a3.55 3.55 0 0 1 1.218.462c.364.224.658.532.882.924.233.392.35.891.35 1.498 0 .597-.107 1.101-.322 1.512-.215.41-.5.747-.854 1.008-.355.252-.76.434-1.218.546a5.922 5.922 0 0 1-1.414.168H25.92l-.336-.028a2.407 2.407 0 0 1-.238-.028V22.5h-1.162v-9.702Zm2.394.798c-.242 0-.476.005-.7.014-.224.01-.401.033-.532.07v4.06a.863.863 0 0 0 .224.042c.103 0 .21.005.322.014h.546c.318 0 .63-.028.938-.084.317-.065.602-.177.854-.336.252-.159.453-.383.602-.672.159-.29.238-.658.238-1.106 0-.383-.075-.7-.224-.952a1.588 1.588 0 0 0-.574-.616c-.233-.159-.5-.27-.798-.336a4.183 4.183 0 0 0-.896-.098Zm9.2 6.188h-3.612l-.98 2.716h-1.148l3.71-9.954h.532l3.724 9.954h-1.218l-1.008-2.716Zm-3.234-1.008h2.884l-1.092-2.982-.35-1.484h-.014l-.35 1.512-1.078 2.954Zm6.761-6.076h5.32v1.036h-4.158v2.94c.159-.028.355-.056.588-.084.234-.028.458-.042.672-.042.476 0 .929.047 1.358.14.43.084.808.233 1.134.448.327.215.584.509.77.882.196.364.294.826.294 1.386 0 .56-.098 1.045-.294 1.456a2.857 2.857 0 0 1-.784.994c-.326.252-.71.443-1.148.574-.43.121-.882.182-1.358.182-.158 0-.34-.005-.546-.014-.196 0-.406-.01-.63-.028-.214-.019-.43-.042-.644-.07a3.503 3.503 0 0 1-.574-.098V12.7Zm2.534 8.904c.299 0 .584-.042.854-.126.27-.084.504-.205.7-.364.206-.168.364-.378.476-.63a2.01 2.01 0 0 0 .182-.882c0-.43-.07-.775-.21-1.036a1.54 1.54 0 0 0-.532-.63 1.932 1.932 0 0 0-.784-.294 4.78 4.78 0 0 0-.91-.084c-.084 0-.182.005-.294.014l-.336.028c-.112.01-.214.023-.308.042-.093.01-.163.019-.21.028v3.85c.066.019.15.033.252.042.112.01.229.019.35.028.13.01.262.014.392.014h.378Zm4.758-4.004c0-1.633.345-2.884 1.035-3.752.691-.877 1.676-1.316 2.955-1.316.69 0 1.287.121 1.791.364.505.243.92.588 1.246 1.036.337.439.584.97.742 1.596.16.616.239 1.307.239 2.072 0 1.633-.35 2.889-1.05 3.766-.691.868-1.68 1.302-2.968 1.302-.682 0-1.275-.121-1.779-.364a3.48 3.48 0 0 1-1.245-1.022 4.645 4.645 0 0 1-.729-1.596 8.483 8.483 0 0 1-.238-2.086Zm1.231 0c0 .541.052 1.055.154 1.54.112.485.28.915.505 1.288.224.364.508.658.853.882.355.215.77.322 1.246.322.869 0 1.55-.327 2.044-.98.495-.663.742-1.68.742-3.052 0-.532-.056-1.04-.167-1.526a3.793 3.793 0 0 0-.505-1.288 2.535 2.535 0 0 0-.867-.882c-.346-.224-.761-.336-1.246-.336-.86 0-1.536.331-2.03.994-.486.653-.729 1.666-.729 3.038Zm14.403-3.864h-3.052V22.5h-1.162v-8.764h-3.052V12.7h7.266v1.036Zm5.156 6.048h-3.612l-.98 2.716h-1.148l3.71-9.954h.532l3.724 9.954h-1.218l-1.008-2.716Zm-3.234-1.008h2.884l-1.092-2.982-.35-1.484h-.014l-.35 1.512-1.078 2.954Zm12.628-.77h-4.704V22.5h-1.162v-9.8h1.162v4.27h4.704V12.7h1.162v9.8H76.78v-4.494Zm3.134-.406c0-1.633.345-2.884 1.036-3.752.69-.877 1.675-1.316 2.954-1.316.69 0 1.288.121 1.792.364s.92.588 1.246 1.036c.336.439.583.97.742 1.596.159.616.238 1.307.238 2.072 0 1.633-.35 2.889-1.05 3.766-.69.868-1.68 1.302-2.968 1.302-.681 0-1.274-.121-1.778-.364a3.48 3.48 0 0 1-1.246-1.022 4.643 4.643 0 0 1-.728-1.596 8.483 8.483 0 0 1-.238-2.086Zm1.232 0c0 .541.051 1.055.154 1.54.112.485.28.915.504 1.288.224.364.508.658.854.882.354.215.77.322 1.246.322.868 0 1.55-.327 2.044-.98.495-.663.742-1.68.742-3.052 0-.532-.056-1.04-.168-1.526a3.793 3.793 0 0 0-.504-1.288 2.536 2.536 0 0 0-.868-.882c-.346-.224-.76-.336-1.246-.336-.859 0-1.535.331-2.03.994-.486.653-.728 1.666-.728 3.038ZM111.151 2.25h-.101L97.5 3.59V27.22l13.55 7.654 13.45-7.654V3.589L111.151 2.25Zm11.442 11.577L111.05 7.32v-.096h-.1l-.101-.096v.096l-11.442 6.602V5.216l11.543-1.148 11.643 1.148v8.61ZM110.95 8.756l11.543 6.41-4.517 2.488-7.127-4.019v1.34l5.922 3.348-.903.479-5.019-2.87v1.339l3.815 2.2-.803.479-3.012-1.722v1.34l1.908 1.051-1.807 1.053-11.443-6.41 11.443-6.506Zm-11.543 7.94 11.442 6.507v.957l-7.929-4.497v1.34l8.03 4.592v1.052l-8.03-4.497v1.34l8.03 4.592 8.13-4.688V18.42l3.413-1.913v9.567l-11.543 6.602-11.543-6.506v-9.472Z" fill="#000"/></svg>
